X: 8527
T: Creggyn
R: reel
M: 4/4
K: Eminor
GFED E3F|G2A2 B4|AGFG E3F|G2A2 F4|
GFED E3F|G2A2 B4|cAAc BGGB|1 AGFG E4:|2 AGFG E3A||
|:B2Bc B3c|d2dc B3A|cAAc BGAG|F6GA|
B2Bc B3A|GFBG F3B|cAAc dcBA|1 B7A:|2 B8||

